X: 130
T:Monferrina 3
M:6/8
L:1/8
S:Neil Brook
R:Jig
Z:Steve Mansfield
K:G
D2D | GDG BGB | ded ded | c2c ABc | B2G D2D | GDG BGB |
ded ded | fed cBA | G3 :: F2A | F2A F2B | A3 ABA |
^cBA GFE | B2A F2A | F2A F2B | A3 ABA | cBA GFE | D3 :|

